svg/stackdriver-monitoring.svg

<?xml version="1.0" encoding="UTF-8"?>
<svg xmlns="http://www.w3.org/2000/svg" xmlns:xlink="http://www.w3.org/1999/xlink" width="32" height="32" viewBox="0 0 32 32">
<path fill-rule="nonzero" fill="rgb(40.000001%, 61.56863%, 96.470588%)" fill-opacity="1" d="M 14.441406 21.121094 L 17.546875 21.121094 L 17.546875 24.640625 L 14.441406 24.640625 Z M 14.441406 21.121094 "/>
<path fill-rule="nonzero" fill="rgb(25.882354%, 52.156866%, 95.686275%)" fill-opacity="1" d="M 24.640625 18.492188 C 24.4375 18.492188 24.246094 18.410156 24.105469 18.265625 L 18.667969 12.625 L 15.011719 16.480469 C 14.742188 16.757812 14.304688 16.785156 14 16.546875 L 11.226562 14.308594 L 8.292969 18.199219 C 8.152344 18.386719 7.925781 18.496094 7.691406 18.492188 L 2.667969 18.492188 L 2.667969 20.773438 C 2.667969 21.320312 3.105469 21.765625 3.652344 21.773438 L 28.347656 21.773438 C 28.894531 21.765625 29.332031 21.320312 29.332031 20.773438 L 29.332031 18.492188 Z M 24.640625 18.492188 "/>
<path fill-rule="nonzero" fill="rgb(40.000001%, 61.56863%, 96.470588%)" fill-opacity="1" d="M 7.332031 17.011719 L 10.507812 12.800781 C 10.625 12.640625 10.804688 12.535156 11 12.507812 C 11.199219 12.492188 11.398438 12.546875 11.558594 12.667969 L 14.386719 14.960938 L 18.121094 11.039062 C 18.261719 10.894531 18.453125 10.8125 18.65625 10.8125 C 18.855469 10.8125 19.046875 10.894531 19.1875 11.039062 L 24.960938 17.011719 L 29.332031 17.011719 L 29.332031 8 C 29.332031 7.457031 28.890625 7.015625 28.347656 7.011719 L 3.652344 7.011719 C 3.109375 7.015625 2.667969 7.457031 2.667969 8 L 2.667969 17.078125 Z M 7.332031 17.011719 "/>
<path fill-rule="nonzero" fill="rgb(25.882354%, 52.156866%, 95.686275%)" fill-opacity="1" d="M 11.960938 24.238281 L 20.054688 24.238281 C 20.273438 24.238281 20.453125 24.417969 20.453125 24.640625 L 20.453125 24.652344 C 20.453125 24.875 20.273438 25.054688 20.054688 25.054688 L 11.960938 25.054688 C 11.851562 25.054688 11.75 25.011719 11.675781 24.9375 C 11.601562 24.859375 11.558594 24.757812 11.558594 24.652344 L 11.558594 24.640625 C 11.558594 24.535156 11.601562 24.433594 11.675781 24.355469 C 11.75 24.28125 11.851562 24.238281 11.960938 24.238281 M 11.960938 24.238281 "/>
</svg>

<svg role="img" viewBox="0 0 32 32" xmlns="http://www.w3.org/2000/svg"><path d="M14.441 21.121h3.106v3.52H14.44Zm0 0" fill="rgb(40.000001%, 61.56863%, 96.470588%)"/><path d="M24.64 18.492a.74.74 0 0 1-.535-.226l-5.437-5.641-3.656 3.855a.76.76 0 0 1-1.012.067l-2.773-2.238-2.934 3.89a.74.74 0 0 1-.602.293H2.668v2.281c0 .547.437.993.984 1h24.696a1 1 0 0 0 .984-1v-2.28Zm0 0" fill="rgb(25.882354%, 52.156866%, 95.686275%)"/><path d="m7.332 17.012 3.176-4.211a.74.74 0 0 1 .492-.293c.2-.016.398.039.559.16l2.828 2.293 3.734-3.922a.744.744 0 0 1 1.067 0l5.773 5.973h4.371V8a.99.99 0 0 0-.984-.988H3.652A.99.99 0 0 0 2.668 8v9.078Zm0 0" fill="rgb(40.000001%, 61.56863%, 96.470588%)"/><path d="M11.96 24.238h8.095c.218 0 .398.18.398.403v.011c0 .223-.18.403-.398.403H11.96a.4.4 0 0 1-.402-.403v-.011a.4.4 0 0 1 .402-.402m0 0" fill="rgb(25.882354%, 52.156866%, 95.686275%)"/></svg>
